packages/kaspersky-hexa-ui-icons/src/iconsSVGs/16/GmailColor.svg

<svg width="16" height="16" viewBox="0 0 16 16" fill="none" xmlns="http://www.w3.org/2000/svg">
<path d="M1.95661 12.9171H4.18301V7.51015L1.00244 5.12472V11.9629C1.00244 12.4909 1.43023 12.9171 1.95661 12.9171Z" fill="#4285F4"/>
<path d="M11.8171 12.9171H14.0435C14.5715 12.9171 14.9977 12.4893 14.9977 11.9629V5.12472L11.8171 7.51015" fill="#34A853"/>
<path d="M11.8171 3.37563V7.51015L14.9977 5.12472V3.85271C14.9977 2.67272 13.6507 2.00003 12.7077 2.70771" fill="#FBBC04"/>
<path d="M4.18301 7.51015L4.18298 3.37558L7.99967 6.23809L11.8171 3.37563V7.51015L7.99967 10.3728" fill="#EA4335"/>
<path d="M1.00248 3.85266L1.00244 5.12472L4.18301 7.51015L4.18298 3.37558L3.29249 2.70766C2.34786 1.99998 1.00248 2.67267 1.00248 3.85266Z" fill="#C5221F"/>
</svg>

<svg xmlns="http://www.w3.org/2000/svg" width="16" height="16" fill="none" viewBox="0 0 16 16"><path fill="#4285f4" d="M1.9566 12.9171H4.183v-5.407L1.0024 5.1248v6.8382c0 .528.4278.9542.9542.9542"/><path fill="#34a853" d="M11.8171 12.9171h2.2264c.528 0 .9542-.4278.9542-.9542V5.1247l-3.1806 2.3855"/><path fill="#fbbc04" d="M11.8171 3.3756v4.1346l3.1806-2.3855v-1.272c0-1.18-1.347-1.8527-2.29-1.145"/><path fill="#ea4335" d="M4.183 7.5102V3.3756L7.9997 6.238l3.8174-2.8625v4.1346l-3.8174 2.8626"/><path fill="#c5221f" d="M1.0025 3.8527v1.272L4.183 7.5102V3.3756l-.8905-.668c-.9446-.7076-2.29-.035-2.29 1.145"/></svg>
